!!!COM: Bach, Johann Sebastian
!!!CDT: 1685/3//-1750/7/28/
!!!OTL@@DE: Vater unser im Himmelreich
!!!OTL@EN: Our Father in Heaven
!!!AGN: 4-Part Chorale
!!!SCT: BH 110
!!!SCT: BWV 102
**harm	**root	**kern	**kern	**kern	**kern
!	!	!bass	!tenor	!alto	!soprno
*	*Iorgan	*Iorgan	*Iorgan	*Iorgan	*Iorgan
*M4/4	*M4/4	*M4/4	*M4/4	*M4/4	*M4/4
*met(c)	*met(c)	*met(c)	*met(c)	*met(c)	*met(c)
*MM60	*MM60	*MM60	*MM60	*MM60	*MM60
*k[]	*k[]	*k[]	*k[]	*k[]	*k[]
*d-:	*d-:	*d-:	*d-:	*d-:	*d-:
i	4CC	4D-	4d-	4f-	4a-
=1	=1	=1	=1	=1	=1
Vb	4GG	4C	4A-	4e-	4a-
i	4CC	4D-	4A-	4d-	4f-
ivb	4FF	4B--	4d-	8d-	4g-
.	.	.	.	8e-	.
ib	8CC	8F-	8d-	8f-	8a-
iiob	8DD	8G-	8B--	8e-	8g-
=2	=2	=2	=2	=2	=2
ic	4CC	4A-	4A-	4d-	4f-
V	4GG	4AA-	8A-	4c	4e-
.	.	.	8G-	.	.
i;	4CC;	4D-;	4F-;	4A-;	4d-;
i	4CC	4d-	4d-	4f-	4a-
=3	=3	=3	=3	=3	=3
iiib	4EE-	8A-	4c-	4f-	4a-
.	.	8B--	.	.	.
-VII	4BB-	4c-	4c-	8e-	4g-
.	.	.	.	8f-	.
-VIIb	4BB-	4E-	4c-	4g-	4cc-
III	4EE-	4F-	4c-	8f-	8a-
.	.	.	.	8e-	8g-
=4	=4	=4	=4	=4	=4
VI	4AA-	4B--	4d-	8d-	4f-
.	.	.	.	8c	.
ivb	4FF	4BB--	4B--	8d-	4g-
.	.	.	.	8e-	.
V;	4GG;	4AA-;	4E-;	4c;	4a-;
i	4CC	4D-	4d-	4f-	8a-
.	.	.	.	.	8b-
=5	=5	=5	=5	=5	=5
v	4GG	4A-	4c-y	4e-	4cc-
iv7	4FF	4G-	4B--	8f-	8dd-
.	.	.	.	8g-	8ee-
ib	4CC	4F-	4A-	4a-	4ff-
ii	8DD	8G-	8B-	4g-	4ee-
V7	8GG	8A-	8c	.	.
=6	=6	=6	=6	=6	=6
VI	4AA-	4B--y	4d-	8f-	4dd-
.	.	.	.	8g-	.
V	4GG	4A-	4e-	4a-	4cc
i;	4CC;	4D-;	4f-;	4a-;	4dd-;
IV	4FF	4G-	4B-	4g-	4dd-
!!linebreak: 2
=7	=7	=7	=7	=7	=7
-VII	4BB-	4c-	4c-	4g-	4ee-
viib/V	4FF#	4B-	4d-	4g	4dd-
V	4GG	4A-	4e-	4a-	4cc-
#viD7	8AA	8D-	8f-	8a-	4b-
V/V	8DD	8E-	8e-	8g	.
=8	=8	=8	=8	=8	=8
ib	4CC	4F-	8e-	4a-	4a-
.	.	.	8d-	.	.
V7/V	4DD	4E-	8d-	4g	4b-
.	.	.	8c	.	.
V;	4GG;	4AA-;	4c;	4e-;	4a-;
IV	4FF	8G-	4B-	4g-	4dd-
.	.	8F-	.	.	.
=9	=9	=9	=9	=9	=9
-VIIb	4BB-	4E-	4c-	4g-	4cc-
#viob	4AA	4D-	4d-	4f-	4b-
-VII	4BB-	4C-	4G-	4e-	8cc-
.	.	.	.	.	8b--
i	4CC	8D-	4F-	8f-	4a-
.	.	8C-	.	8e-	.
=10	=10	=10	=10	=10	=10
VI7	4AA-	4BB--	4F-	4d-	4a-
-VII	4BB-	4C-	8c-	4e-	4g-
.	.	.	8B--	.	.
III;	4EE-;	4F-;	4A-;	4c-;	4f-;
Ib	4CC	4F	4d-	4d-	4a-
=11	=11	=11	=11	=11	=11
iv	4FF	4G-	4d-	4g-	4b--
V7	4GG	4A-	4c	8f-	8a-
.	.	.	.	8e-	8g-
VI	4AA-	8B--	8d-	4d-	4f-
.	.	8A-	8c-	.	.
iv	4FF	4G-	4B--	8e-	4g-
.	.	.	.	8d-	.
=12	=12	=12	=12	=12	=12
ic	4CC	4A-	4A-	8c	4f-
.	.	.	.	8d-	.
V	4GG	4AA-	8A-	8d-	4e-
.	.	.	8G-	8c	.
I;	4CC;	4D-;	4F;	4A-;	4d-;
==	==	==	==	==	==
*-	*-	*-	*-	*-	*-
!!chor2scor: -l 2 -s 0.6 -o %b.pmx
!!!YEC: Copyright 1994, David Huron
!!!YEC: Changes/Additions 2001 by Craig Stuart Sapp
!!!YEN: United States of America
!!!SMA: 371 Bach Chorales, edited by Ludwig Erk, C.F. Peters
!!!PDT: 1850, 1865
!!!ONB: Harmony and Root analysis done manually
